material/.icons/material/source-commit-end-local.svg

<svg xmlns="http://www.w3.org/2000/svg" viewBox="0 0 24 24"><path d="M12 7a5 5 0 015 5 5 5 0 01-5 5 5 5 0 01-5-5 5 5 0 015-5m0 2a3 3 0 00-3 3 3 3 0 003 3 3 3 0 003-3 3 3 0 00-3-3m-1-4V3h2v2h-2z"/></svg>

<?xml version="1.0" encoding="UTF-8"?><!DOCTYPE svg PUBLIC "-//W3C//DTD SVG 1.1//EN" "http://www.w3.org/Graphics/SVG/1.1/DTD/svg11.dtd"><svg xmlns="http://www.w3.org/2000/svg" xmlns:xlink="http://www.w3.org/1999/xlink" version="1.1" id="mdi-source-commit-end-local" width="24" height="24" viewBox="0 0 24 24"><path d="M12,7A5,5 0 0,1 17,12A5,5 0 0,1 12,17A5,5 0 0,1 7,12A5,5 0 0,1 12,7M12,9A3,3 0 0,0 9,12A3,3 0 0,0 12,15A3,3 0 0,0 15,12A3,3 0 0,0 12,9M11,5V3H13V5H11Z" /></svg>
